src/icons/file-php.svg

<svg width="16" height="16" viewBox="0 0 16 16" fill="none" xmlns="http://www.w3.org/2000/svg">
<path fill-rule="evenodd" clip-rule="evenodd" d="M12.5 4.7C12.5 4.54889 12.4929 4.39943 12.4789 4.25196C12.7679 4.32585 13.0274 4.4214 13.27 4.54497C14.2108 5.02434 14.9757 5.78924 15.455 6.73005C16 7.79961 16 9.19974 16 12V12.4C16 12.9601 16 13.2401 15.891 13.454C15.7951 13.6422 15.6422 13.7951 15.454 13.891C15.2401 14 14.9601 14 14.4 14H12V10.75C12 10.3358 11.6642 10 11.25 10C10.8358 10 10.5 10.3358 10.5 10.75V14H8.6C8.03995 14 7.75992 14 7.54601 13.891C7.35785 13.7951 7.20487 13.6422 7.10899 13.454C7 13.2401 7 12.9601 7 12.4V10.9497C10.1017 10.5566 12.5 7.90839 12.5 4.7Z" fill="#7380F9"/>
<path d="M3 11.75V9H4.5V11.75C4.5 12.9926 3.49264 14 2.25 14C1.00736 14 0 12.9926 0 11.75V11H1.5V11.75C1.5 12.1642 1.83579 12.5 2.25 12.5C2.66421 12.5 3 12.1642 3 11.75Z" fill="#7380F9"/>
<path fill-rule="evenodd" clip-rule="evenodd" d="M6.2 9.5H3V5.5C3 3.29086 4.79086 1.5 7 1.5H7.8C9.56731 1.5 11 2.93269 11 4.7C11 7.35097 8.85097 9.5 6.2 9.5ZM6 7C6.55228 7 7 6.55228 7 6C7 5.44772 6.55228 5 6 5C5.44772 5 5 5.44772 5 6C5 6.55228 5.44772 7 6 7Z" fill="#7380F9"/>
</svg>

<svg xmlns="http://www.w3.org/2000/svg" width="16" height="16" fill="none"><path fill="#7380F9" fill-rule="evenodd" d="M12.5 4.7q0-.226-.021-.448c.289.074.548.17.791.293a5 5 0 0 1 2.185 2.185C16 7.8 16 9.2 16 12v.4c0 .56 0 .84-.109 1.054a1 1 0 0 1-.437.437C15.24 14 14.96 14 14.4 14H12v-3.25a.75.75 0 0 0-1.5 0V14H8.6c-.56 0-.84 0-1.054-.109a1 1 0 0 1-.437-.437C7 13.24 7 12.96 7 12.4v-1.45a6.3 6.3 0 0 0 5.5-6.25" clip-rule="evenodd"/><path fill="#7380F9" d="M3 11.75V9h1.5v2.75a2.25 2.25 0 0 1-4.5 0V11h1.5v.75a.75.75 0 0 0 1.5 0"/><path fill="#7380F9" fill-rule="evenodd" d="M6.2 9.5H3v-4a4 4 0 0 1 4-4h.8A3.2 3.2 0 0 1 11 4.7a4.8 4.8 0 0 1-4.8 4.8M6 7a1 1 0 1 0 0-2 1 1 0 0 0 0 2" clip-rule="evenodd"/></svg>
